icons/scalable/key-dark.svg

<svg width="24" height="25" viewBox="0 0 24 25" fill="none" xmlns="http://www.w3.org/2000/svg">
<path
        d="M2.586 18.0586C2.2109 18.4336 2.00011 18.9422 2 19.4726V21.6446C2 21.9098 2.10536 22.1641 2.29289 22.3517C2.48043 22.5392 2.73478 22.6446 3 22.6446H6C6.26522 22.6446 6.51957 22.5392 6.70711 22.3517C6.89464 22.1641 7 21.9098 7 21.6446V20.6446C7 20.3794 7.10536 20.125 7.29289 19.9375C7.48043 19.7499 7.73478 19.6446 8 19.6446H9C9.26522 19.6446 9.51957 19.5392 9.70711 19.3517C9.89464 19.1641 10 18.9098 10 18.6446V17.6446C10 17.3794 10.1054 17.125 10.2929 16.9375C10.4804 16.7499 10.7348 16.6446 11 16.6446H11.172C11.7024 16.6445 12.211 16.4337 12.586 16.0586L13.4 15.2446C14.7898 15.7287 16.3028 15.7269 17.6915 15.2393C19.0801 14.7518 20.2622 13.8074 21.0444 12.5607C21.8265 11.314 22.1624 9.83874 21.9971 8.37631C21.8318 6.91387 21.1751 5.55082 20.1344 4.51014C19.0937 3.46946 17.7307 2.81275 16.2683 2.64746C14.8058 2.48216 13.3306 2.81807 12.0839 3.60021C10.8372 4.38236 9.89279 5.56444 9.40525 6.95309C8.91771 8.34174 8.91585 9.85473 9.4 11.2446L2.586 18.0586Z" stroke="white" stroke-width="2" stroke-linecap="round" stroke-linejoin="round"/>
<path
        d="M16.5 8.64453C16.7761 8.64453 17 8.42067 17 8.14453C17 7.86839 16.7761 7.64453 16.5 7.64453C16.2239 7.64453 16 7.86839 16 8.14453C16 8.42067 16.2239 8.64453 16.5 8.64453Z" fill="black" stroke="white" stroke-width="2" stroke-linecap="round" stroke-linejoin="round"/>
</svg>

<svg xmlns="http://www.w3.org/2000/svg" width="24" height="25" fill="none" viewBox="0 0 24 25">
    <path stroke="#fff" stroke-linecap="round" stroke-linejoin="round" stroke-width="2" d="M2.586 18.059A2 2 0 0 0 2 19.473v2.172a1 1 0 0 0 1 1h3a1 1 0 0 0 1-1v-1a1 1 0 0 1 1-1h1a1 1 0 0 0 1-1v-1a1 1 0 0 1 1-1h.172a2 2 0 0 0 1.414-.586l.814-.814a6.5 6.5 0 1 0-4-4z"/>
    <path fill="#000" stroke="#fff" stroke-linecap="round" stroke-linejoin="round" stroke-width="2" d="M16.5 8.645a.5.5 0 1 0 0-1 .5.5 0 0 0 0 1"/>
</svg>
